images-mobile/svg/icon6.svg

<svg width="110" height="56" viewBox="0 0 110 56" fill="none" xmlns="http://www.w3.org/2000/svg">
<path d="M55.3926 26.6767C54.9486 26.0858 54.7362 25.3876 54.7866 24.6847V21.7966C54.7866 20.9113 54.9875 20.2385 55.3892 19.7782C55.791 19.3179 56.481 19.0888 57.4593 19.0907C58.3786 19.0907 59.0311 19.2866 59.417 19.6783C59.8379 20.1781 60.0427 20.7894 59.9958 21.4059V22.0846H58.3513V21.3971C58.3572 21.172 58.3412 20.947 58.3037 20.7243C58.28 20.572 58.1972 20.4311 58.0687 20.3247C57.8999 20.21 57.6871 20.1544 57.4729 20.169C57.2476 20.1545 57.0242 20.2131 56.8464 20.3335C56.7032 20.4514 56.6077 20.6059 56.5741 20.7742C56.5269 21.0099 56.5052 21.2489 56.5094 21.4881V24.9932C56.4834 25.3313 56.556 25.6697 56.7205 25.9774C56.8023 26.0816 56.9158 26.1641 57.0486 26.216C57.1814 26.2678 57.3283 26.287 57.4729 26.2712C57.6836 26.2862 57.8926 26.2292 58.0551 26.1126C58.1891 25.9978 58.2753 25.848 58.3003 25.6866C58.3387 25.454 58.3557 25.2192 58.3513 24.9844V24.2734H59.9958V24.9227C60.042 25.5653 59.8422 26.2033 59.4272 26.7384C59.0493 27.1673 58.4058 27.3818 57.4593 27.3818C56.5128 27.3818 55.7978 27.1527 55.3926 26.6767Z" fill="#8E8F99"/>
<path d="M62.2393 26.7061C61.8239 26.2566 61.6162 25.6014 61.6162 24.7347V21.6967C61.6162 20.8388 61.8239 20.1895 62.2393 19.7488C62.6546 19.3081 63.3492 19.0888 64.3229 19.0907C65.2898 19.0907 65.981 19.3101 66.3963 19.7488C66.8117 20.1895 67.0228 20.8388 67.0228 21.6967V24.7347C67.0228 25.5926 66.8117 26.2507 66.3895 26.7031C65.9674 27.1556 65.2796 27.3818 64.3229 27.3818C63.3662 27.3818 62.658 27.1527 62.2393 26.7061ZM65.089 25.9774C65.2377 25.6959 65.3055 25.3874 65.2864 25.0784V21.3589C65.3055 21.0558 65.2389 20.7533 65.0924 20.4775C65.0089 20.3711 64.8926 20.2872 64.7565 20.2353C64.6204 20.1833 64.4702 20.1654 64.3229 20.1837C64.1752 20.1659 64.0246 20.184 63.8881 20.2359C63.7516 20.2878 63.6346 20.3714 63.5501 20.4775C63.4003 20.7525 63.3325 21.0555 63.3526 21.3589V25.096C63.3319 25.4052 63.3997 25.7139 63.5501 25.9951C63.6459 26.0898 63.7642 26.1658 63.8969 26.2179C64.0296 26.2699 64.1737 26.2968 64.3195 26.2968C64.4653 26.2968 64.6094 26.2699 64.7421 26.2179C64.8748 26.1658 64.9931 26.0898 65.089 25.9951V25.9774Z" fill="#8E8F99"/>
<path d="M69.0008 19.1794H70.7713L72.1025 24.7846L73.4644 19.1794H75.1872L75.3608 27.2699H74.0875L73.9513 21.6471L72.6371 27.2699H71.6157L70.2538 21.6265L70.1278 27.2699H68.8408L69.0008 19.1794Z" fill="#8E8F99"/>
<path d="M77.3462 19.1794H80.1039C81.6928 19.1794 82.4872 19.9452 82.4872 21.4767C82.4872 22.9436 81.6508 23.6761 79.978 23.6741H79.0383V27.2699H77.3359L77.3462 19.1794ZM79.7022 22.6371C79.8704 22.6555 80.0412 22.6422 80.2029 22.5981C80.3645 22.554 80.5131 22.4801 80.6385 22.3815C80.8337 22.1083 80.9198 21.7874 80.8836 21.4679C80.8925 21.2211 80.865 20.9743 80.8019 20.7335C80.7776 20.653 80.735 20.5776 80.6765 20.5115C80.6181 20.4454 80.5449 20.3901 80.4614 20.3486C80.2251 20.2508 79.9639 20.2064 79.7022 20.2194H79.0417V22.6371H79.7022Z" fill="#8E8F99"/>
<path d="M84.9424 19.1794H86.7707L88.6466 27.2699H87.0601L86.689 25.4044H85.0581L84.6768 27.2699H83.0664L84.9424 19.1794ZM86.5051 24.4673L85.8684 21.0713L85.2318 24.4673H86.5051Z" fill="#8E8F99"/>
<path d="M90.1616 19.1794H91.3533L93.6344 23.7946V19.1794H95.0474V27.2699H93.9136L91.6188 22.452V27.2699H90.1582L90.1616 19.1794Z" fill="#8E8F99"/>
<path d="M98.3564 24.185L96.46 19.1907H98.0568L99.2143 22.3988L100.3 19.1907H101.863L99.9906 24.185V27.2697H98.3564V24.185Z" fill="#8E8F99"/>
<path d="M58.0215 30.807V31.2301H56.6324V34.5176H56.0502V31.2301H54.6543V30.807H58.0215Z" fill="#8E8F99"/>
<path d="M62.376 34.5178H61.9266C61.8809 34.5203 61.8359 34.5077 61.8006 34.4826C61.7666 34.461 61.7406 34.4315 61.7257 34.3974L61.3239 33.5161H59.3968L58.9951 34.3974C58.9837 34.4343 58.9627 34.4684 58.9338 34.4973C58.8982 34.5219 58.8534 34.5344 58.8078 34.5325H58.3584L60.0608 30.8221H60.6532L62.376 34.5178ZM59.5569 33.14H61.1639L60.483 31.63C60.4327 31.5158 60.3906 31.3991 60.357 31.2804C60.3331 31.3509 60.3127 31.4185 60.2923 31.4773L60.231 31.633L59.5569 33.14Z" fill="#8E8F99"/>
<path d="M65.3105 34.1536C65.4171 34.1584 65.5239 34.1584 65.6305 34.1536C65.7226 34.1454 65.8137 34.1306 65.9029 34.1095C65.9863 34.0918 66.0682 34.0693 66.148 34.0419C66.2229 34.0155 66.2978 33.9832 66.3762 33.9508V33.1164H65.6952C65.6784 33.1172 65.6615 33.115 65.6457 33.11C65.6299 33.1049 65.6154 33.0971 65.6033 33.087C65.5921 33.0787 65.5833 33.0683 65.5774 33.0566C65.5715 33.0449 65.5687 33.0322 65.5692 33.0194V32.7344H66.8903V34.1565C66.7824 34.2231 66.6686 34.282 66.5498 34.3328C66.4284 34.3845 66.3019 34.4268 66.1719 34.4591C66.0326 34.4945 65.8903 34.52 65.7463 34.5355C65.5812 34.5513 65.4153 34.5592 65.2492 34.559C64.9556 34.5612 64.6642 34.5143 64.3912 34.4209C64.1363 34.3325 63.9047 34.2006 63.7103 34.0331C63.5207 33.8639 63.3715 33.6643 63.2711 33.4455C63.1638 33.1995 63.1106 32.9384 63.1144 32.6757C63.1109 32.4112 63.1628 32.1485 63.2677 31.9C63.3656 31.6801 63.5151 31.48 63.7069 31.3124C63.9012 31.1454 64.1329 31.0144 64.3878 30.9274C64.6794 30.8328 64.9888 30.786 65.3003 30.7894C65.4588 30.7892 65.617 30.8 65.7735 30.8217C65.9119 30.8411 66.0477 30.8726 66.1787 30.9157C66.2978 30.9543 66.4119 31.0035 66.5192 31.0626C66.6235 31.1206 66.7225 31.1854 66.8154 31.2565L66.6519 31.4857C66.6391 31.5066 66.6201 31.5242 66.5967 31.5366C66.5734 31.549 66.5466 31.5558 66.5192 31.5562C66.4815 31.5552 66.4449 31.545 66.4136 31.5268C66.3625 31.5033 66.3081 31.4739 66.2468 31.4387C66.1744 31.3995 66.098 31.3661 66.0187 31.3388C65.9172 31.3037 65.8124 31.2761 65.7054 31.2565C65.5628 31.2339 65.418 31.223 65.273 31.2242C65.0484 31.2221 64.8254 31.257 64.6159 31.327C64.4265 31.3926 64.2557 31.4929 64.1154 31.6209C63.9743 31.7542 63.8665 31.9113 63.7988 32.0822C63.6467 32.484 63.6467 32.9172 63.7988 33.3191C63.8733 33.4936 63.9893 33.6528 64.1393 33.7863C64.2789 33.9136 64.4484 34.0138 64.6364 34.0801C64.8528 34.1442 65.0823 34.1693 65.3105 34.1536Z" fill="#8E8F99"/>
<path d="M70.7375 34.0945H72.5965V34.5176H70.1689V30.807H70.7512L70.7375 34.0945Z" fill="#8E8F99"/>
<path d="M74.5305 34.5176H73.9482V30.807H74.5305V34.5176Z" fill="#8E8F99"/>
<path d="M76.6962 30.8247C76.7308 30.8417 76.7609 30.8647 76.7847 30.8923L79.2735 33.6893C79.2701 33.6453 79.2701 33.6011 79.2735 33.5571C79.2735 33.516 79.2735 33.4748 79.2735 33.4366V30.7924H79.7808V34.5179H79.488C79.4446 34.5209 79.4011 34.5138 79.362 34.4973C79.3267 34.4788 79.2955 34.4549 79.2701 34.4268L76.7847 31.6327C76.7847 31.6767 76.7847 31.7179 76.7847 31.759C76.7847 31.8001 76.7847 31.8383 76.7847 31.8736V34.5179H76.2979V30.807H76.6009C76.6337 30.8071 76.6662 30.8131 76.6962 30.8247Z" fill="#8E8F99"/>
<path d="M84.0667 30.807V31.2154H82.0035V32.4405H83.6752V32.8342H82.0035V34.1005H84.0667V34.5088H81.4043V30.807H84.0667Z" fill="#8E8F99"/>
<path d="M23.0585 7.89211L48.9103 14.2261V36.4217L23.0585 30.0906V7.89211ZM21.4004 6.00012V31.1688L50.565 38.3166V13.1509L21.4004 6.00012Z" fill="#8E8F99"/>
<path d="M37.0313 50.0001L7.86328 42.8463V17.6803L37.0313 24.8311V50.0001Z" fill="#8E8F99"/>
<path d="M21.8838 7.60711L47.3985 13.8617L36.5478 23.2275L11.0296 16.9699L21.8838 7.60711ZM21.4003 6.00012L7.86328 17.6809L37.0312 24.8315L50.5649 13.1508L21.4003 6.00012Z" fill="#8E8F99"/>
<path d="M38.6719 48.5843L50.5644 38.3197L38.6719 35.4025V48.5843Z" fill="#8E8F99"/>
</svg>

<svg xmlns="http://www.w3.org/2000/svg" width="110" height="56" fill="none"><path fill="#8E8F99" d="M55.393 26.677a2.953 2.953 0 0 1-.606-1.992v-2.888c0-.886.2-1.559.602-2.019.402-.46 1.092-.69 2.07-.687.92 0 1.572.196 1.958.587.42.5.626 1.111.579 1.728v.679H58.35v-.688c.006-.225-.01-.45-.047-.673a.652.652 0 0 0-.235-.4.951.951 0 0 0-.596-.155 1.008 1.008 0 0 0-.627.165.77.77 0 0 0-.272.44 3.335 3.335 0 0 0-.065.714v3.505a1.79 1.79 0 0 0 .212.984.772.772 0 0 0 .328.239c.132.052.28.071.424.055.21.015.42-.042.582-.158a.706.706 0 0 0 .245-.426c.039-.233.056-.468.051-.703v-.71h1.645v.649a2.643 2.643 0 0 1-.569 1.815c-.378.43-1.021.644-1.968.644-.946 0-1.661-.23-2.066-.705ZM62.24 26.706c-.416-.45-.624-1.105-.624-1.971v-3.038c0-.858.208-1.508.623-1.948.416-.44 1.11-.66 2.084-.658.967 0 1.658.22 2.073.658.416.44.627 1.09.627 1.948v3.038c0 .858-.211 1.516-.633 1.968-.423.453-1.11.679-2.067.679-.957 0-1.665-.23-2.084-.676Zm2.849-.729c.149-.281.216-.59.197-.899v-3.72a1.651 1.651 0 0 0-.194-.88.776.776 0 0 0-.335-.243.907.907 0 0 0-.434-.051.92.92 0 0 0-.435.052.788.788 0 0 0-.338.241c-.15.276-.217.578-.197.882v3.737c-.021.31.047.618.197.9.096.094.214.17.347.222a1.161 1.161 0 0 0 .845 0c.133-.052.251-.128.347-.223v-.018ZM69 19.18h1.771l1.332 5.605 1.361-5.606h1.723l.174 8.09h-1.273l-.137-5.622-1.314 5.623h-1.021l-1.362-5.643-.126 5.643H68.84l.16-8.09ZM77.346 19.18h2.758c1.589 0 2.383.765 2.383 2.297 0 1.467-.836 2.2-2.509 2.197h-.94v3.596h-1.702l.01-8.09Zm2.356 3.457c.168.018.34.005.5-.039.163-.044.311-.118.436-.216a1.31 1.31 0 0 0 .246-.914 2.534 2.534 0 0 0-.082-.735.595.595 0 0 0-.126-.221.704.704 0 0 0-.215-.163 1.763 1.763 0 0 0-.759-.13h-.66v2.418h.66ZM84.942 19.18h1.829l1.876 8.09H87.06l-.371-1.866h-1.63l-.382 1.866h-1.61l1.875-8.09Zm1.563 5.287-.637-3.396-.636 3.396h1.273ZM90.162 19.18h1.191l2.281 4.615v-4.616h1.413v8.09h-1.133l-2.295-4.817v4.818h-1.46l.003-8.09ZM98.356 24.185l-1.896-4.994h1.597l1.157 3.208 1.086-3.208h1.563l-1.872 4.994v3.085h-1.635v-3.085ZM58.022 30.807v.423h-1.39v3.288h-.582V31.23h-1.396v-.423h3.367ZM62.376 34.518h-.45a.2.2 0 0 1-.125-.035.194.194 0 0 1-.075-.086l-.402-.88h-1.927l-.402.88a.243.243 0 0 1-.061.1.207.207 0 0 1-.126.035h-.45l1.703-3.71h.592l1.723 3.696Zm-2.82-1.378h1.608l-.681-1.51a2.674 2.674 0 0 1-.126-.35c-.024.07-.044.139-.065.197l-.061.156-.674 1.507ZM65.31 34.154c.107.004.214.004.32 0 .093-.009.184-.023.273-.045.083-.017.165-.04.245-.067.075-.026.15-.059.228-.091v-.835h-.68a.142.142 0 0 1-.05-.006.127.127 0 0 1-.043-.023.086.086 0 0 1-.026-.03.076.076 0 0 1-.008-.038v-.285h1.321v1.422a2.577 2.577 0 0 1-.718.303c-.14.035-.282.061-.426.076a5.153 5.153 0 0 1-.497.024 2.596 2.596 0 0 1-.858-.138 2.092 2.092 0 0 1-.68-.388 1.792 1.792 0 0 1-.44-.587 1.854 1.854 0 0 1-.157-.77 1.925 1.925 0 0 1 .154-.776c.098-.22.247-.42.439-.588.194-.167.426-.298.68-.385.292-.094.602-.141.913-.138.159 0 .317.011.474.033.138.02.274.05.405.094.119.038.233.087.34.147.105.058.203.122.296.194l-.163.229a.142.142 0 0 1-.055.05.17.17 0 0 1-.078.02.222.222 0 0 1-.105-.03 2.119 2.119 0 0 1-.167-.087 1.515 1.515 0 0 0-.228-.1 2.137 2.137 0 0 0-.314-.082 2.625 2.625 0 0 0-.432-.033 2.018 2.018 0 0 0-.657.103c-.19.066-.36.166-.5.294a1.29 1.29 0 0 0-.317.461 1.733 1.733 0 0 0 0 1.237c.074.175.19.334.34.467.14.128.31.228.497.294.217.064.446.09.675.074ZM70.737 34.094h1.86v.424h-2.428v-3.711h.582l-.014 3.287ZM74.53 34.518h-.582v-3.711h.583v3.71ZM76.696 30.825c.035.017.065.04.089.067l2.489 2.797a.858.858 0 0 1 0-.132v-2.765h.507v3.726h-.293a.276.276 0 0 1-.126-.02.33.33 0 0 1-.092-.071l-2.485-2.794V34.518h-.487v-3.711h.303c.033 0 .065.006.095.018ZM84.067 30.807v.408h-2.063v1.226h1.671v.393h-1.671V34.1h2.063v.409h-2.663v-3.702h2.663ZM23.058 7.892l25.852 6.334v22.196L23.06 30.09V7.892ZM21.4 6V31.17l29.165 7.148V13.15L21.4 6Z"/><path fill="#8E8F99" d="M37.031 50 7.863 42.846V17.68l29.168 7.151v25.17Z"/><path fill="#8E8F99" d="m21.884 7.607 25.514 6.255-10.85 9.365L11.03 16.97l10.854-9.363ZM21.4 6 7.863 17.68l29.168 7.151 13.534-11.68L21.4 6ZM38.672 48.584 50.564 38.32l-11.892-2.917v13.181Z"/></svg>
